X:153
T: Wo e kleins Huettle steht, ist e kleins Guetle
N: D0241
O: Europa, Mitteleuropa, Deutschland, Wuerttemberg
N: Inzipit = Transposition zum Lied
R: Liebes - Lied, Liebeslust
M: 3/8
L: 1/16
K: F
C2F2F2 | E3DC2 | B2G2E2 | G2F2z2
C2F2F2 | E3DC2 | B2G2E2 | F6
G3AG2 | G3AG2 | G3AG2 | G3AG2
F2E2D2 | C2B4 | c2c2cB | A4z2
F2E2D2 | C2B4 | c2c2cB | A4z2

